X: 6
T: Missa Sine nomine i / Kyrie
N: Derived from Tin1002a-Missa_Sine_nomine_I-Kyrie.krn
C: Johannes Tinctoris
%%abc-version 2.0
%%abcx-abcm2ps-target-version 5.9.1 (29 Sep 2008)
%%abc-creator hum2abc beta
%%abcx-conversion-date 2019/02/17 07:34:55
%%abc-edited-by Jesse Rodin
%%abc-edited-by Chris Gage 01-09-2015
%%abcx-initial-encoding-date 2015/01/17/
%%humdrum-veritas 111864438
%%humdrum-veritas-data 1286702010
%%linebreak <none>
%%barnumbers 0
L: 1/4
M: 3/1
Q: 1/2=120
V: 1 clef=treble-8
V: 2 clef=bass
V: 3 clef=bass
K: Bb
[V:1] c8B4 | 
[V:2] C,6E,2D,4 | 
[V:3] C,3B,,A,,F,,C,2G,,4 | 
[V:1] c6d2e3d/c/ | 
[V:2] C,2E,4F,2G,4 | 
[V:3] C,,3C,,2E,,D,,2C,,4- | 
[V:1] e2d3cB2A4 | 
[V:2] G,8^F,4 | 
[V:3] C,,2G,,3A,,B,,C,D,4 | 
[V:1] z2G3ABA/B/c2BG- | 
[V:2] G,3C,E,F,D,2C,2D,E,- | 
[V:3] G,,3/A,,/B,,C,2F,,G,,2_A,,2G,,C,,- | 
[V:1] GF/E/D2zCE2D2C2 | 
[V:2] E,/D,/C,=B,,2C,4B,,2zC, | 
[V:3] C,,/D,,/E,,/F,,/G,,2C,,4G,,2C,,2- | 
[V:1] GAB2c4d2e2- | 
[V:2] E,2D,2C,3A,,B,,2C,2- | 
[V:3] C,,2G,,2zC,,E,,2D,,2C,,2 | 
[V:1] efed/c/Bc2d2c2A | 
[V:2] C,D,E,F,G,E,F,2D,E,F,2 | 
[V:3] C,3B,,/A,,/G,,C,F,,B,,2C,A,,2 | 
[V:1] !fermata!B12 | 
[V:2] !fermata![D,12G,12] | 
[V:3] !fermata!G,,12 | 
[V:1] e4d2c3B/A/B2 | 
[V:2] G,4F,2E,2D,4 | 
[V:3] C,,4D,,2E,,2F,,2G,,2 | 
[V:1] zE2F2GAG/A/BG2^F | 
[V:2] C,3D,3/C,/B,,C,B,,/A,,/G,,B,,A,,2 | 
[V:3] _A,,3/B,,/C,B,,2A,,/G,,/F,,2G,,2D,,2 | 
[V:1] G12 | 
[V:2] z2G,,3A,,B,,2C,2G,,2 | 
[V:3] E,,C,,2D,,E,,2F,,G,,2C,,2D,, | 
[V:1] z12 | 
[V:2] zA,,2B,,2C,D,C,/D,/E,C,2=B,, | 
[V:3] E,,F,,2G,,3/F,,/E,,F,,E,,/D,,/C,,E,,D,,2 | 
[V:1] E4D2CE2FG2 | 
[V:2] C,4z2C,4B,,2 | 
[V:3] C,,4G,,2A,,4G,,2 | 
[V:1] AB2cd2e3df2- | 
[V:2] C,D,E,2F,2G,3F,D,2- | 
[V:3] zG,,E,,2D,,2C,,2C,2B,,2- | 
[V:1] fedce2dc2=B/A/=B2 | 
[V:2] D,E,F,2G,2E,2D,4 | 
[V:3] B,,C,D,2C,4G,,4 | 
[V:1] c12 ||  
[V:2] C,12 ||  
[V:3] C,,12 ||  
[V:1]  [K:Bb] [K:clef=treble-8][M:2/1]c8 | 
[V:2]  [K:Bb] [K:clef=bass][M:2/1]C,8- | 
[V:3]  [K:Bb] [K:clef=bass][M:2/1]C,,8- | 
[V:1] c4G2c2- | 
[V:2] C,8- | 
[V:3] C,,8 | 
[V:1] cBA2G3F | 
[V:2] C,8- | 
[V:3] F,,4E,,3D,, | 
[V:1] _A2G3FE2 | 
[V:2] C,8 | 
[V:3] F,,2C,,3D,,E,,F,, | 
[V:1] D8 | 
[V:2] B,,8 | 
[V:3] G,,4z2G,,2- | 
[V:1] z2D3EF2 | 
[V:2] G,,3A,,B,,3C, | 
[V:3] G,,A,,B,,C,D,4- | 
[V:1] G2A2B2c2 | 
[V:2] D,6E,2 | 
[V:3] D,2F,4E,2 | 
[V:1] d2e2d2f2- | 
[V:2] F,2G,4F,2 | 
[V:3] D,2C,2G,,2D,2- | 
[V:1] fedce2d2- | 
[V:2] D,4G,3F, | 
[V:3] D,E,F,2C,2G,,2 | 
[V:1] dGc4=B2 | 
[V:2] G,2E,2D,4 | 
[V:3] z2C,,2G,,4 | 
[V:1] c8 | 
[V:2] C,8- | 
[V:3] C,,3D,,E,,2F,,2 | 
[V:1] z2c3BA2- | 
[V:2] C,4z2F,2- | 
[V:3] C,,2F,,2F,,3G,, | 
[V:1] AGF2=E2G2 | 
[V:2] F,E,D,3C,B,,2 | 
[V:3] A,,2B,,2C,2G,,2 | 
[V:1] C4z2C2 | 
[V:2] A,,2C,2F,,4 | 
[V:3] C,2F,,2A,,3B,, | 
[V:1] E2F4G2 | 
[V:2] z2F,,2A,,2B,,2 | 
[V:3] C,6B,,2 | 
[V:1] A2B2c2d2- | 
[V:2] C,2D,2E,2F,2 | 
[V:3] A,,2G,,2z2D,2 | 
[V:1] dcB2A4 | 
[V:2] D,2G,4^F,2 | 
[V:3] B,,2G,,2D,4 | 
[V:1] G4z4 | 
[V:2] G,4C,4 | 
[V:3] z2G,,2A,,4 | 
[V:1] d4e4 | 
[V:2] z8 | 
[V:3] B,,4C,4 | 
[V:1] f4g4 | 
[V:2] D,4E,4 | 
[V:3] B,,2D,2C,4 | 
[V:1] f2d2edcB | 
[V:2] F,4G,4 | 
[V:3] D,4C,4 | 
[V:1] A4G2G2- | 
[V:2] F,2D,2E,D,C,B,, | 
[V:3] D,2F,2C,4 | 
[V:1] G2^F2G4 | 
[V:2] A,,4G,,4 | 
[V:3] z2C,2B,,2G,,2 | 
[V:1] c4z2d2 | 
[V:2] z2C,4B,,2 | 
[V:3] A,,G,,F,,E,,D,,4 | 
[V:1] e2c4=B2 | 
[V:2] C,2E,2D,4 | 
[V:3] C,,4G,,4 | 
[V:1] c8 ||  
[V:2] C,8 ||  
[V:3] C,,8 ||  
[V:1]  [K:Bb] [K:clef=treble-8][M:3/1]c6B2A3G | 
[V:2]  [K:Bb] [K:clef=bass][M:3/1]C,12- | 
[V:3]  [K:Bb] [K:clef=bass][M:3/1]C,,8F,,4 | 
[V:1] G6FGAGFE | 
[V:2] C,12 | 
[V:3] C,,3D,,E,,4F,,4 | 
[V:1] D4E2C4e2- | 
[V:2] B,,4C,3D,E,F,G,2- | 
[V:3] G,,4E,,4C,4- | 
[V:1] edf3edc=B3A | 
[V:2] G,2_A,3G,F,E,D,4 | 
[V:3] C,2F,,6G,,4 | 
[V:1] c8z4 | 
[V:2] C,2C,3B,,A,,2G,,4 | 
[V:3] z2_A,,3G,,F,,2=E,,3D,, | 
[V:1] z12 | 
[V:2] z2F,,4A,,4B,,2 | 
[V:3] F,,4D,,8 | 
[V:1] z12 | 
[V:2] (3:2:8C,4D,2E,2F,2G,2_A,2G,2F,2 | 
[V:3] C,,4C,4F,,4 | 
[V:1] z12 | 
[V:2] G,2E,2C,2F,4=E,2 | 
[V:3] C,4A,,2F,,2G,,4 | 
[V:1] A8c4 | 
[V:2] F,4z2F,3E,F,2 | 
[V:3] F,,8A,,4 | 
[V:1] B2d3cB2A3G | 
[V:2] G,4D,3E,F,3G, | 
[V:3] G,,8F,,2D,,2 | 
[V:1] B4A6G2 | 
[V:2] D,2G,4^F,2F,3=E, | 
[V:3] G,,4D,,8 | 
[V:1] G4z2G2A2B2 | 
[V:2] G,4C,2D,2z2D,2 | 
[V:3] z2G,,2A,,2B,,2C,2G,,2 | 
[V:1] c4z2C2D2E2 | 
[V:2] C,2E,2F,2G,2z2C,2 | 
[V:3] z2C,,2D,,2E,,2F,,2E,,2 | 
[V:1] F2G3FE2D4 | 
[V:2] D,2E,3D,C,2=B,,3A,, | 
[V:3] D,,2C,,6G,,4 | 
[V:1] C6c6 | 
[V:2] C,4E,8 | 
[V:3] C,,4C,2_A,,3B,,C,2 | 
[V:1] B2d3c=BA=B4 | 
[V:2] D,12 | 
[V:3] G,,2B,,3A,,G,,F,,G,,4 | 
[V:1] c4A2G4c2 | 
[V:2] C,2F,4E,2C,4 | 
[V:3] A,,2F,,4C,3B,,A,,2 | 
[V:1] B2d4e2d2cB | 
[V:2] G,8F,4 | 
[V:3] G,,3A,,B,,2C,2D,4 | 
[V:1] cBAGB2A2G2c2- | 
[V:2] E,2F,2G,2F,2E,2C,2 | 
[V:3] C,2D,2G,,2A,,B,,C,2A,,2 | 
[V:1] c2B2e3df3e | 
[V:2] D,4C,2F,3E,D,C, | 
[V:3] G,,4C,,2D,,3E,,F,,2- | 
[V:1] dce3dc4=B2 | 
[V:2] F,2G,3F,E,2D,4 | 
[V:3] F,,E,,C,,6G,,4 | 
[V:1] c12 |]  
[V:2] C,12 |]  
[V:3] C,,12 |]  



